X:568
T:Miss Mary Stewart of Derculich
R:Reel
C:R. Petrie
B:The Athole Collection
M:C|
L:1/8
K:D
A|d2df e2eg|fdgf eEEe|1 d2df e2eg fdec dDD:|2 defd efga|fdec dDD||
|:f|abaf dfaf|abaf geef|1 abaf dfaf|geag fdd:|2 dfeg fagb|afge fdd||

